Adwaita++-Light/panel/24/megapaused.svg

<svg height="24" width="24" xmlns="http://www.w3.org/2000/svg">
  <g fill="#444">
    <path d="m11 3c-4.4177135 0-8 3.578744-8 8 0 4.417713 3.5787438 8 8 8 .326401 0 .646718-.02453.962891-.0625a5 5 0 0 1 -.962891-2.9375 5 5 0 0 1 2-3.992188v-.507812l-1 1.5h-2l-1-1.5v2.5h-2v-6h2l2 3 2-3h2v3.105469a5 5 0 0 1 1-.105469 5 5 0 0 1 2.9375.960938c.037824-.315629.0625-.635059.0625-.960938 0-4.4177134-3.578744-8-8-8z" opacity=".3" transform="translate(1 1.000237)"/>
    <path d="m17.279297 13.008049c-.768533-.054321-1.561885.113119-2.279297.527344-1.9132 1.1046-2.567391 3.551644-1.462891 5.464844 1.1045 1.9131 3.549791 2.567491 5.462891 1.462891 1.9132-1.1046 2.569344-3.549691 1.464844-5.462891-.690313-1.195688-1.904658-1.901651-3.185547-1.992188zm-2.279297 1.992188h1v4h-1zm3 0h1v4h-1z"/>
  </g>
</svg>

<svg xmlns="http://www.w3.org/2000/svg" width="24" height="24" version="1.1">
 <defs>
  <style id="current-color-scheme" type="text/css">
   .ColorScheme-Text { color:#444444; } .ColorScheme-Highlight { color:#4285f4; }
  </style>
 </defs>
 <g transform="translate(1,1.0002371)" style="fill:currentColor;opacity:0.3" class="ColorScheme-Text">
  <path style="fill:currentColor" class="ColorScheme-Text" d="m 11,3 c -4.4177135,0 -8,3.578744 -8,8 0,4.417713 3.5787438,8 8,8 0.326401,0 0.646718,-0.02453 0.962891,-0.0625 A 5,5 0 0 1 11,16 5,5 0 0 1 13,12.007812 L 13,11.5 12,13 10,13 9,11.5 9,14 7,14 7,8 l 2,0 2,3 2,-3 2,0 0,3.105469 A 5,5 0 0 1 16,11 5,5 0 0 1 18.9375,11.960938 C 18.975324,11.645309 19,11.325879 19,11 19,6.5822866 15.421256,3 11,3 Z"/>
 </g>
 <path style="fill:currentColor" class="ColorScheme-Text" d="M 17.279297,13.008049 C 16.510764,12.953728 15.717412,13.121168 15,13.535393 c -1.9132,1.1046 -2.567391,3.551644 -1.462891,5.464844 1.1045,1.9131 3.549791,2.567491 5.462891,1.462891 1.9132,-1.1046 2.569344,-3.549691 1.464844,-5.462891 -0.690313,-1.195688 -1.904658,-1.901651 -3.185547,-1.992188 z M 15,15.000237 l 1,0 0,4 -1,0 0,-4 z m 3,0 1,0 0,4 -1,0 0,-4 z"/>
</svg>
